src/Pure/16/symbolic/actions/forward-symbolic.svg

<?xml version="1.0" encoding="UTF-8" standalone="no"?>
<svg
   height="16"
   width="16"
   enable-background="new"
   version="1.1"
   id="svg1"
   sodipodi:docname="forward-symbolic.svg"
   inkscape:version="1.4.2 (ebf0e940d0, 2025-05-08)"
   xmlns:inkscape="http://www.inkscape.org/namespaces/inkscape"
   xmlns:sodipodi="http://sodipodi.sourceforge.net/DTD/sodipodi-0.dtd"
   xmlns="http://www.w3.org/2000/svg"
   xmlns:svg="http://www.w3.org/2000/svg">
  <sodipodi:namedview
     id="namedview1"
     pagecolor="#ffffff"
     bordercolor="#000000"
     borderopacity="0.25"
     inkscape:showpageshadow="2"
     inkscape:pageopacity="0.0"
     inkscape:pagecheckerboard="0"
     inkscape:deskcolor="#d1d1d1"
     inkscape:zoom="49.6875"
     inkscape:cx="8"
     inkscape:cy="8"
     inkscape:window-width="1920"
     inkscape:window-height="1010"
     inkscape:window-x="0"
     inkscape:window-y="0"
     inkscape:window-maximized="1"
     inkscape:current-layer="svg1" />
  <defs
      id="defs1">
      <style
          id="current-color-scheme"
          type="text/css">.ColorScheme-Text { color:#363636; }</style>
      </defs>
  <path
     id="path1"
     style="fill:currentColor"
     class="ColorScheme-Text"
     d="M 9 1.5039062 L 9 4.0039062 L 6.5 4.0039062 C 3.5 4.0039062 1.5 6.1309063 1.5 9.2539062 C 1.5 12.503906 5.5 14.003906 5.5 14.003906 C 5.5 14.003906 3.6255 11.351906 4.0625 10.003906 C 4.4285 8.8779063 5.635 8.0039062 7 8.0039062 L 9 8.0039062 L 9 10.503906 L 15.46875 6.0039062 L 9 1.5039062 z M 10 3.4101562 L 13.75 6.0039062 L 10 8.5976562 L 10 7.0039062 L 7 7.0039062 C 5.209 7.0039062 3.644 8.0944063 3.125 9.6914062 C 2.975 10.151406 3.03475 10.557656 3.09375 10.972656 C 2.74275 10.474656 2.5 9.9259062 2.5 9.2539062 C 2.5 7.9059063 2.91375 6.8761563 3.59375 6.1601562 C 4.27375 5.4431563 5.236 5.0039062 6.5 5.0039062 L 10 5.0039062 L 10 3.4101562 z " />
</svg>

<svg xmlns="http://www.w3.org/2000/svg" height="16" width="16" enable-background="new"><defs><filter id="a" color-interpolation-filters="sRGB"><feBlend in2="BackgroundImage" mode="darken"/></filter></defs><path d="M9 1.503v2.5H6.5c-3 0-5 2.127-5 5.25 0 3.25 4 4.75 4 4.75s-1.875-2.652-1.438-4c.366-1.126 1.573-2 2.938-2h2v2.5l6.469-4.5L9 1.503zm1 1.907l3.75 2.593L10 8.597V7.003H7c-1.791 0-3.356 1.091-3.875 2.688-.15.46-.09.866-.031 1.281-.351-.498-.594-1.047-.594-1.719 0-1.348.414-2.377 1.094-3.093.68-.717 1.642-1.157 2.906-1.157H10V3.41z" style="line-height:normal;-inkscape-font-specification:Sans;text-indent:0;text-align:start;text-decoration-line:none;text-transform:none;block-progression:tb;marker:none" color="#363636" font-weight="400" font-family="Sans" overflow="visible" fill="#363636" enable-background="accumulate"/></svg>
